X:1
T:Zaccheus
T:Zaccheus
T:Charles Edward Pollock, 1880
T:Philip Paul Bliss, 1870
T:Public Domain Courtesy of the Cyber Hymnal™
C:Charles Edward Pollock, 1880
Z:Public Domain
Z:Courtesy of the Cyber Hymnal™
%%score 1 ( 2 3 )
L:1/8
Q:1/4=100
M:4/4
K:A
V:1 treble 
V:2 bass 
V:3 bass 
V:1
 [CE]>[CE] | [CE]2 [Ec]2 [Ec]2 [EB]2 | [FA][FA] [DF]2 [FA]3 [FA] | [CE]3 [CE] [EA][EA] [Ec]2 | %4
w: 1.~Thro’ the|crowd- ed streets of|Jer- i- cho see The|ho- ly Na- za- rene|
w: 2.~In the|friend- ly shade of|sy- ca- more tree, The|joy- ful pub- li- can|
w: 3.~Like an|ear- nest lit- tle|Zac- che- us, I Would|fain the Ho- ly One|
 [EB]6 [Ec]>[DB] | [CA]2 [CA]2 [CA]2 [CE][CE] | [DF][DF] [DF]2 [FA]2 [DF][DF] | %7
w: go; Hear the|shouts of praise from the|hap- py ones there, Who His|
w: see; Hear the|Mas- ter’s voice say- ing,|“Zac- che- us, come, For I|
w: see; I would|haste with joy at the|bless- èd com- mand, “For I|
 [CE]3 [Ec] [Ec]2 [DB]2 | [CA]6 z2 ||"^Refrain" [EB]2 [EB]>[EB] [EB]3 [EB] | [Ec]2 [Ae]2 [Ae]4 | %11
w: heal- ing vir- tues|know.|||
w: must a- bide with|thee.”|Praise ye the Lord, His|mer- cies show,|
w: must a- bide with|thee.”|||
 [Ec][Ec][Ec][Ae] [Ae]2 [Ec]2 | [EB]6 z2 | [CE]2 [Ec][Ec] [Ec]2 [EB]2 | [FA]2 [DF]2 [FA]4 | %15
w: ||||
w: Ev- er in His love con-|fide;|More than we ask will|He be- stow,|
w: ||||
 [CE][CA][CA][DB] [Ec]2 [DB]2 | [CA]6 |] %17
w: ||
w: Will- ing- ly with us a-|bide.|
w: ||
V:2
 [A,,A,]>[A,,A,] | [A,,A,]2 [A,,A,]2 [A,,A,]2 [C,A,]2 | [D,A,][D,A,] [D,A,]2 [D,A,]3 [D,A,] | %3
 [A,,A,]3 [A,,A,] [C,A,][C,A,] [A,,A,]2 | [E,G,]6 [E,A,]>[E,G,] | %5
 [A,,A,]2 [A,,A,]2 [A,,A,]2 [A,,A,][A,,A,] | [D,A,][D,A,] [D,A,]2 [D,A,]2 [D,A,][D,A,] | %7
 [E,A,]3 [E,A,] [E,A,]2 [E,G,]2 | [A,,A,]6 z2 || [E,G,]2 [E,G,]>[E,G,] [E,G,]3 [E,G,] | %10
 A,2 [A,C]2 [A,C]4 | A,A,A,[A,C] [A,C]2 [A,,A,]2 | [E,G,]6 z2 | %13
 [A,,A,]2 [A,,A,][A,,A,] [A,,A,]2 [C,A,]2 | [D,A,]2 [D,A,]2 [D,A,]4 | %15
 [E,A,][E,A,][E,A,][E,A,] [E,A,]2 [E,A,]2 | [A,,A,]6 |] %17
V:3
 x2 | x8 | x8 | x8 | x8 | x8 | x8 | x8 | x8 || x8 | A,2 x6 | A,A,A, x5 | x8 | x8 | x8 | x8 | x6 |] %17

